X:1
T:Title
%%score { ( 1 3 5 ) | ( 2 4 ) }
L:1/8
Q:1/4=96
M:3/4
K:Ab
V:1 treble nm="Grand Piano"
V:3 treble 
V:5 treble 
V:2 bass 
V:4 bass 
V:1
 EF AB AF | z2 d4 | EF Gd Fd | [Ec]6 | EF AB AF | z2 B4 | [B=d]c BA [B,EG][=DF] | E4 z2 | %8
w: I.~H.~Meredith * * * * *||||||||
 [Bd]c [Bd][ce] [Bd]c | z2 [GB]4 | [Ec]_c =cd cB | A6 | [_C=EA][EA] [CEA][EA] [CEB][EA] | %13
w: |||||
 [CEAc]2 A2 GF | EE F2 B2 | [A,CEA]6 | z2 [Ac]4 | z2 [Gd]4 | [Fd]d [Ad]2 [Bd]2 | [Ec]6 | %20
w: |||||||
 [Ec]2 z2 z e | z2 [Ge]4 | [F=d]d d2 d2 | [Bd]6 | z2 [Ac]4 | z2 [Gd]4 | [Fd]d [Ad]2 [Bd]2 | [Ec]6 | %28
w: ||||||||
 z2 [df]4 | [B=d]2 d2 dd | [ce]e [ce]2 [Bd]2 | [Ac]6 |] %32
w: ||||
V:2
 A,,2 [E,A,C]2 [E,A,C]2 | B,,2 [E,G,D]2 [E,G,]2 | z2 z2 [E,G,D]2 | A,,2 E,2 E,2 | %4
 A,,2 [E,A,C]2 [E,A,C]2 | B,,2 [G,B,E]2 [G,B,]2 | z[K:treble] A GF[K:bass] z A, | E,2 .B,,2 .E,,2 | %8
 z =A [E,G,D]2 z _A | E,,2 [E,G,D]2 E,2 | z =D EF E_D | A,,2 E,2 E,2 | z _C z C z C | %13
 E,2 [E,CE]2 [=D,A,_C]2 | CC [E,G,D]2 [E,G,D]2 | A,,6 | A,,2 [E,A,C]2 z F | B,,2 [E,G,D]2 E,2 | %18
 z G [E,G,D]2 [E,G,D]2 | A,,2 E,2 E,2 | A,,2 [E,A,C]2 z[K:treble] c | G,,2 [G,B,E]2 G,2 | %22
 z[K:treble] G [A,B,=DA]2 [A,B,DF]2 | E,,2 E,2 E,2 | A,,2 [E,A,C]2 z F | B,,2 [E,G,D]2 E,2 | %26
 z G [E,G,D]2 [E,G,D]2 | A,,2 E,2 E,2 | A,,2 [E,A,C]2 z[K:treble] c | B,,2 [A,B,=DF]2 GA | %30
 z E [E,A,C]2 [E,G,D]2 | [A,,A,]6 |] %32
V:3
 x6 | G2 z2 D2 | x6 | z2 [A,C]2 [A,C]2 | x6 | G2 z2 E2 | x6 | G,2 z2 z2 | x6 | [GB]2 z2 [G,D]2 | %10
 x6 | C2 [A,C]2 [A,C]2 | x6 | x6 | x6 | x6 | [Ec]2 z2 z c | [Ad]2 z2 [G,D]2 | x6 | %19
 z2 [A,C]2 [A,C]2 | z2 [Ac]4 | [Be]2 z2 [B,E]2 | x6 | z2 [G,D]2 [G,D]2 | [Ec]2 z2 z c | %25
 [Ad]2 z2 [G,D]2 | x6 | z2 [A,C]2 [A,C]2 | [ce]2 z2 z e | x6 | x6 | x6 |] %32
V:4
 x6 | x6 | B,,2 [E,G,D]2 z =E | x6 | x6 | x6 | B,,2[K:treble] [A,B,=D]2[K:bass] B,,2 | x6 | %8
 B,,2 z2 [E,G,D]2 | x6 | A,,2 [E,A,C]2 [E,A,C]2 | x6 | =E,2 E,2 E,2 | x6 | [E,A,]2 z2 z2 | x6 | %16
 z2 z2 [E,A,]2 | x6 | E,,2 z2 z2 | x6 | z2 z2 [E,A,]2[K:treble] | x6 | F,,2[K:treble] z2 z2 | x6 | %24
 z2 z2 [E,A,]2 | x6 | E,,2 z2 z2 | x6 | z2 z2 [E,A,]2[K:treble] | z2 z2 [A,=D]2 | E,,2 z2 z2 | %31
 x6 |] %32
V:5
 x6 | x6 | x6 | x6 | x6 | x6 | x6 | x6 | x6 | x6 | x6 | x6 | x6 | x6 | x6 | x6 | z2 z2 C2 | x6 | %18
 x6 | x6 | z2 z2 C2 | x6 | x6 | x6 | z2 z2 C2 | x6 | x6 | x6 | z2 z2 C2 | x6 | x6 | x6 |] %32

